X: 42119
T: Warlocks, The
R: strathspey
M: 4/4
K: Eminor
B>E B>G E2 E/F/G|A>B A<F D2D/E/F|G>E F>A B<e e>f|1 g>e f/e/de2e>d:|2 g>e f>d e2e>B||
e/f/g b>g e<B g>e|f/g/a d>a f<d a>f|e/f/g b>g e<B g>e|d>B A<F E2E>B|
e/f/g b>g e<B g>e|f/g/a d>a f<d a>f|e>f g>f e>d B>G|A/B/c G>F E2E2||

